X:1
T:The Dancing Dog
L:1/8
M:12/8
I:linebreak $
K:D
V:1 treble 
V:1
|: A2 B cBA eAB cBA | ded cBA GAB A2 E | A2 B cBA eAB cBA |$ faf ged GAB A3 :: e2 c cde Bcd cBA | %5
 e2 c cde Bcd e2 f |$ gfe fed efe dcB | A2 B cBA GAB A3 :| %8
